X: 3063
T: Lady Grace Douglas's    Reel
%R: reel
B: Niel Gow & Sons "A Third Collection of Strathspey Reels, etc." v.3 p.6 #3
Z: 2022 John Chambers <jc:trillian.mit.edu>
M: C|
L: 1/8
K: Bb
% - - - - - - - - - -
V: 1 staves=2
g |\
Tf2dB Tc2AF | B2FD ECCg | Tf2dB Tc2AF | BFGE DB,B, :| E | (D/E/F) FB GBFB | EBDB cCCE |
(D/E/F) FB GBFB | DFBF DB,B,E || (D/E/F) FB GBFB | EBDB cCTC>E | DFBd cFBg | fdce dTBB |]
% - - - - - - - - - -
% Voice 2 preserves the staff layout in the book.
V: 2 clef=bass middle=d
z | b2B2 f2f2 | d2B2 f2F2 | B2B2 f2f2 | b2f2 B2B :| z | B2d2 e2d2 | c2B2 f2F2 |
B2d2 e2d2 | f2F2 B2B2 || B2d2 e2d2 | c2B2 f2F2 | b2B2 f2B2 | f2F2 B2B |]


